build/img/sprite_auto.svg

<svg xmlns="http://www.w3.org/2000/svg" xmlns:xlink="http://www.w3.org/1999/xlink"><symbol id="icon-envelope"><path d="M16.68 0H2.323C1.042 0 0 1.009 0 2.25v9.5C0 12.991 1.042 14 2.323 14h14.354C17.958 14 19 12.991 19 11.75V2.253C19.004 1.013 17.962 0 16.68 0zm1.262 11.75c0 .674-.566 1.222-1.262 1.222H2.323c-.695 0-1.262-.548-1.262-1.222V2.253c0-.673.567-1.221 1.262-1.221h14.354c.695 0 1.262.548 1.262 1.221v9.497h.003z" fill="#00B2FF"/><path d="M11.983 6.882l4.646-4.035a.505.505 0 00.04-.727.546.546 0 00-.751-.038L9.51 7.651 8.26 6.57c-.004-.004-.008-.008-.008-.012a.78.78 0 00-.087-.072L3.078 2.078a.542.542 0 00-.75.042.502.502 0 00.043.727l4.702 4.07L2.39 11.16a.504.504 0 00-.023.727.541.541 0 00.75.027l4.754-4.305L9.16 8.724a.54.54 0 00.708-.004l1.325-1.15 4.725 4.348c.102.095.236.14.366.14a.537.537 0 00.385-.16.504.504 0 00-.02-.726l-4.666-4.29z" fill="#00B2FF"/></symbol><symbol id="icon-fb" viewBox="0 0 27 27">
<path fill-rule="evenodd" clip-rule="evenodd" d="M27 13.5C27 6.04462 20.9562 0 13.5 0C6.04379 0 0 6.04462 0 13.5C0 20.9562 6.04369 27 13.5 27C20.9562 27 27 20.9563 27 13.5ZM16.8836 9.29395H15.1437C14.6754 9.29395 14.3464 9.69053 14.3464 10.185V10.9604H16.8312L16.4288 13.4772H14.3455V20.2238H11.8025V13.4772H10.115V10.9604H11.8025V9.677H11.8075C11.8523 8.21392 12.3602 6.82092 14.8383 6.73315V6.72388H16.8836V9.29395Z" fill="#CDCDCD"/>
</symbol><symbol id="icon-header-logo"><path d="M32.067 13.867c1.128 0 2.081.727 2.44 1.733h8.986a2.596 2.596 0 012.44-1.733c1.434 0 2.6 1.166 2.6 2.6 0 1.433-1.166 2.6-2.6 2.6a2.597 2.597 0 01-2.44-1.734h-8.987a2.597 2.597 0 01-2.44 1.733 2.603 2.603 0 01-2.6-2.6c0-1.433 1.167-2.6 2.6-2.6zm13.866 3.466a.868.868 0 000-1.733.867.867 0 000 1.733zm-13.866 0a.868.868 0 10-.002-1.735.868.868 0 00.002 1.735z" fill="#00B2FF"/><path d="M25.133 19.226v-5.36c0-.23.091-.45.254-.612l3.467-3.467a.864.864 0 01.613-.254h2.76a2.596 2.596 0 012.44-1.733c1.433 0 2.6 1.166 2.6 2.6 0 1.433-1.167 2.6-2.6 2.6a2.596 2.596 0 01-2.44-1.733h-2.402l-2.958 2.958v5a2.596 2.596 0 011.733 2.441c0 1.434-1.167 2.6-2.6 2.6a2.603 2.603 0 01-2.6-2.6c0-1.128.727-2.081 1.733-2.44zm9.534-7.96a.868.868 0 10-.002-1.735.868.868 0 00.002 1.736zM26 22.534a.867.867 0 10-.002-1.735.867.867 0 00.002 1.735zm-16.467-.001c.4 0 .775.098 1.114.26l1.486-1.485V13c0-.23.091-.45.254-.613l8.674-8.673A2.556 2.556 0 0120.8 2.6c0-1.433 1.166-2.6 2.6-2.6C24.834 0 26 1.167 26 2.6s-1.166 2.6-2.6 2.6c-.4 0-.775-.098-1.114-.261l-8.42 8.42v8.307c0 .23-.09.451-.253.613l-1.74 1.74c.162.34.26.714.26 1.114 0 1.433-1.166 2.6-2.6 2.6a2.603 2.603 0 01-2.6-2.6c0-1.433 1.167-2.6 2.6-2.6zM23.4 3.467a.868.868 0 000-1.734.868.868 0 000 1.734zM9.533 26a.868.868 0 10-.001-1.735A.868.868 0 009.533 26zm-7.8-13.707V8.667c0-.231.091-.451.254-.613l6.067-6.067a.864.864 0 01.613-.254h4.492A2.597 2.597 0 0115.6 0c1.433 0 2.6 1.167 2.6 2.6s-1.167 2.6-2.6 2.6a2.597 2.597 0 01-2.44-1.733H9.024L3.467 9.025v3.268a2.596 2.596 0 011.733 2.44c0 1.433-1.167 2.6-2.6 2.6a2.603 2.603 0 01-2.6-2.6c0-1.128.727-2.082 1.733-2.44zM15.6 3.467a.867.867 0 10-.002-1.735.867.867 0 00.002 1.735zM2.6 15.6a.867.867 0 10-.002-1.735A.867.867 0 002.6 15.6zm11.266 31.36V34.507a2.597 2.597 0 01-1.733-2.44c0-1.434 1.167-2.6 2.6-2.6 1.129 0 2.082.726 2.44 1.733h8.986a2.597 2.597 0 012.441-1.734c1.128 0 2.082.727 2.44 1.733h5.001l3.22-3.22A2.557 2.557 0 0139 26.867c0-1.433 1.166-2.6 2.6-2.6 1.433 0 2.6 1.167 2.6 2.6 0 1.434-1.167 2.6-2.6 2.6-.4 0-.775-.098-1.114-.26l-3.473 3.473a.864.864 0 01-.613.254h-5.36a2.597 2.597 0 01-2.44 1.733 2.597 2.597 0 01-2.44-1.733h-8.987a2.598 2.598 0 01-1.574 1.574V46.96a2.596 2.596 0 011.733 2.44c0 1.434-1.166 2.6-2.6 2.6a2.603 2.603 0 01-2.6-2.6c0-1.128.728-2.082 1.734-2.44zM41.6 27.732a.867.867 0 10-.002-1.735.867.867 0 00.002 1.735zm-13 5.2a.868.868 0 10-.002-1.735.868.868 0 00.002 1.735zM14.733 50.266a.868.868 0 000-1.733.868.868 0 000 1.733zm0-17.333a.868.868 0 000-1.733.868.868 0 000 1.733z" fill="#00B2FF"/><path d="M18.2 17.492v-2.759c0-.23.091-.45.254-.613L28.86 3.714A2.556 2.556 0 0128.6 2.6c0-1.433 1.166-2.6 2.6-2.6 1.128 0 2.082.727 2.44 1.733h3.627c.478 0 .866.388.866.867v2.241l3.22 3.22a2.556 2.556 0 011.114-.261c1.433 0 2.6 1.166 2.6 2.6 0 1.433-1.167 2.6-2.6 2.6a2.603 2.603 0 01-2.6-2.6c0-.4.098-.775.26-1.114l-3.473-3.473A.863.863 0 0136.4 5.2V3.467h-2.76A2.596 2.596 0 0131.2 5.2c-.4 0-.775-.098-1.114-.261L19.933 15.092v2.4a2.596 2.596 0 011.734 2.441c0 1.433-1.167 2.6-2.6 2.6a2.603 2.603 0 01-2.6-2.6c0-1.128.727-2.082 1.733-2.44zm24.267-6.226a.868.868 0 10-.002-1.735.868.868 0 00.002 1.736zM31.2 3.467a.868.868 0 000-1.733.868.868 0 000 1.734zM19.067 20.8a.868.868 0 10-.002-1.735.868.868 0 00.002 1.735z" fill="#00B2FF"/><path d="M20.8 24.266c1.128 0 2.082.727 2.44 1.734h10.201l4.946-4.946A.864.864 0 0139 20.8h9.175l2.092-2.092v-7.083L43.58 4.94c-.338.163-.713.26-1.113.26a2.603 2.603 0 01-2.6-2.599c0-1.433 1.166-2.6 2.6-2.6 1.433 0 2.6 1.167 2.6 2.6 0 .4-.098.775-.261 1.114l6.94 6.94a.863.863 0 01.254.613v7.8c0 .23-.091.45-.254.612l-2.6 2.6a.864.864 0 01-.613.254H39.36l-4.946 4.946a.864.864 0 01-.613.254H23.24a2.596 2.596 0 01-2.44 1.733 2.603 2.603 0 01-2.6-2.6c0-1.433 1.166-2.6 2.6-2.6zM42.467 1.733a.868.868 0 10.001 1.735.868.868 0 00-.001-1.735zm-21.667 26a.868.868 0 000-1.733.868.868 0 000 1.733zM2.6 20.8c.4 0 .775.098 1.114.26l3.22-3.219v-5A2.596 2.596 0 015.2 10.4c0-1.434 1.167-2.6 2.6-2.6s2.6 1.166 2.6 2.6a2.596 2.596 0 01-1.733 2.44v5.36c0 .23-.091.45-.254.613l-3.474 3.473c.163.339.261.713.261 1.114a2.597 2.597 0 01-1.733 2.44v.668l6.679 6.679a.863.863 0 01.254.613v1.026a2.596 2.596 0 011.733 2.44 2.596 2.596 0 01-1.733 2.44v2.054a2.596 2.596 0 011.733 2.44c0 1.434-1.166 2.6-2.6 2.6a2.603 2.603 0 01-2.6-2.6c0-1.128.727-2.082 1.734-2.44v-2.053a2.596 2.596 0 01-1.734-2.44c0-1.13.727-2.083 1.734-2.441v-.668l-6.68-6.679a.863.863 0 01-.254-.613V25.84A2.597 2.597 0 010 23.4c0-1.434 1.167-2.6 2.6-2.6zm5.2-9.534a.867.867 0 10-.002-1.734.867.867 0 00.002 1.735zm1.733 33.8a.868.868 0 000-1.733.867.867 0 000 1.733zm0-6.933a.868.868 0 000-1.733.867.867 0 000 1.733zM2.6 24.266a.867.867 0 10-.002-1.735.867.867 0 00.002 1.735z" fill="#00B2FF"/></symbol><symbol id="icon-ok" viewBox="0 0 27 26">
<path d="M13.8512 10.957C14.8668 10.957 15.6568 10.1213 15.638 9.2113C15.6568 8.3013 14.8857 7.44702 13.87 7.44702C12.892 7.44702 12.0833 8.22702 12.0833 9.19273C12.0833 10.1584 12.8732 10.957 13.8512 10.957Z" fill="#CDCDCD"/>
<path d="M13.701 0C6.44113 0 0.5354 5.8314 0.5354 12.9999C0.5354 20.187 6.44113 25.9999 13.701 25.9999C20.9797 25.9999 26.8667 20.1685 26.8667 12.9999C26.8855 5.8314 20.9797 0 13.701 0ZM13.8891 4.9214C16.2589 4.9214 18.215 6.85282 18.1962 9.21138C18.1962 11.5885 16.2213 13.5014 13.8139 13.4642C11.4441 13.4271 9.54445 11.5142 9.54445 9.19281C9.54445 6.83425 11.4817 4.9214 13.8891 4.9214ZM18.7228 14.9499C18.7228 14.9871 18.704 15.0056 18.704 15.0428C18.6475 15.4142 18.4595 15.7114 18.1397 15.9156C17.9328 16.0456 17.7071 16.1756 17.4814 16.2871C16.9172 16.5656 16.3153 16.7885 15.6947 16.9371C15.6195 16.9556 15.6195 16.9556 15.6759 17.0113C16.0144 17.3456 16.3718 17.6985 16.7103 18.0328C17.1429 18.4599 17.5943 18.9056 18.0269 19.3328C18.6475 19.9456 18.4783 20.967 17.6883 21.3385C17.5567 21.4128 17.4062 21.4313 17.2558 21.4685C17.1805 21.4685 17.0865 21.4685 17.0112 21.4685C16.9924 21.4685 16.9736 21.4685 16.9736 21.4499C16.6727 21.4128 16.4282 21.2642 16.2025 21.0599C15.4502 20.317 14.679 19.5556 13.9267 18.8128C13.8703 18.7571 13.8703 18.7571 13.8139 18.8128C13.0427 19.5742 12.2904 20.317 11.5193 21.0785C11.3876 21.2085 11.256 21.3013 11.0867 21.3756C10.9739 21.4313 10.8422 21.4499 10.7294 21.4685C10.6541 21.4685 10.5789 21.4685 10.4849 21.4685C10.4472 21.4685 10.4284 21.4499 10.3908 21.4499C9.883 21.357 9.54445 21.0785 9.39399 20.5956C9.24352 20.1128 9.35637 19.6856 9.71373 19.3328C10.0335 19.017 10.3344 18.7199 10.6541 18.4042C11.1243 17.9399 11.5945 17.4756 12.0459 17.0299C12.1023 16.9742 12.1023 16.9742 12.0271 16.9556C12.0083 16.9556 11.9707 16.9371 11.9519 16.9371C11.1055 16.7328 10.3344 16.3985 9.60088 15.9528C9.16829 15.6742 8.9614 15.2656 9.01783 14.7642C9.11187 13.8356 10.1651 13.3342 10.9551 13.8356C11.1055 13.9285 11.2372 14.0028 11.4064 14.0771C12.2716 14.5042 13.1932 14.6899 14.1524 14.6342C14.6226 14.6156 15.0928 14.5228 15.563 14.3742C16.0144 14.2256 16.4094 14.0214 16.8232 13.7985C17.5003 13.4085 18.3842 13.7242 18.6475 14.4485C18.6852 14.5599 18.704 14.6528 18.7228 14.7642C18.7228 14.8199 18.7228 14.8756 18.7228 14.9499Z" fill="#CDCDCD"/>
</symbol><symbol id="icon-phone-call"><path d="M14.233 11.15c-.369-.383-.814-.588-1.286-.588-.468 0-.917.2-1.3.585l-1.203 1.196c-.099-.053-.198-.102-.293-.152a4.832 4.832 0 01-.377-.201c-1.126-.714-2.15-1.645-3.13-2.85-.476-.6-.796-1.105-1.028-1.618.312-.285.601-.581.883-.866l.32-.323c.798-.798.798-1.831 0-2.629l-1.04-1.037c-.117-.118-.24-.24-.353-.36A17.952 17.952 0 004.71 1.6c-.369-.365-.81-.559-1.274-.559-.464 0-.913.194-1.294.559l-.007.007L.84 2.91a2.778 2.778 0 00-.825 1.767c-.092 1.11.236 2.142.487 2.819.616 1.66 1.537 3.198 2.91 4.847a17.9 17.9 0 005.962 4.662c.875.414 2.043.904 3.348.987.08.004.163.008.24.008.878 0 1.617-.315 2.195-.942.004-.008.011-.012.015-.02.198-.239.426-.455.666-.687.163-.156.33-.319.494-.49.377-.391.575-.847.575-1.314 0-.471-.202-.924-.586-1.303l-2.089-2.094zm1.362 4c-.004 0-.004.005 0 0-.148.16-.3.305-.464.464a9.977 9.977 0 00-.734.76c-.384.41-.837.604-1.43.604-.058 0-.119 0-.176-.004-1.13-.072-2.18-.513-2.967-.889a16.898 16.898 0 01-5.616-4.391C2.911 10.132 2.043 8.689 1.47 7.139c-.354-.946-.483-1.683-.426-2.379.038-.444.21-.813.525-1.128l1.297-1.295c.187-.175.385-.27.579-.27.24 0 .433.144.555.266l.011.011c.233.217.453.44.685.68.118.122.24.243.362.369L6.095 4.43c.404.403.404.775 0 1.178-.11.11-.217.22-.327.326-.32.327-.624.63-.955.927-.007.008-.015.012-.019.02-.327.326-.266.645-.198.862l.012.034c.27.653.65 1.269 1.229 2.002l.003.004c1.05 1.291 2.158 2.298 3.379 3.07.156.098.316.178.468.254.137.068.266.133.377.201.015.008.03.02.045.027.13.064.251.095.377.095.316 0 .513-.198.578-.262l1.301-1.3c.13-.129.335-.285.575-.285.236 0 .43.149.548.278l.007.007 2.097 2.094c.391.387.391.786.003 1.189zM9.728 4.282a4.827 4.827 0 012.626 1.36 4.84 4.84 0 011.362 2.621.51.51 0 00.506.426c.03 0 .057-.004.087-.008a.513.513 0 00.422-.593 5.856 5.856 0 00-1.647-3.172 5.871 5.871 0 00-3.177-1.645.516.516 0 00-.593.418.507.507 0 00.414.593zm8.264 3.658a9.635 9.635 0 00-2.713-5.223 9.659 9.659 0 00-5.23-2.71.512.512 0 10-.168 1.011 8.65 8.65 0 014.676 2.42 8.601 8.601 0 012.423 4.67.51.51 0 00.506.425c.03 0 .057-.004.088-.008a.503.503 0 00.418-.585z" fill="#00B2FF"/></symbol><symbol id="icon-vk" viewBox="0 0 27 26">
<path d="M19.475 15.1271C18.3662 14.1029 18.287 14.1029 19.2374 12.9211C20.4254 11.4243 22.0095 9.53349 20.5838 9.53349H17.9701C17.4949 9.53349 17.4157 9.84862 17.2573 10.2425C16.6237 11.7394 15.3565 13.709 14.8812 13.3938C14.406 13.0787 14.6436 11.897 14.6436 10.0062C14.7228 9.76984 14.6436 9.53349 14.4852 9.37592C14.3268 9.21836 14.0892 9.06079 13.8516 9.06079C13.4556 8.98201 13.0596 8.90323 12.6636 8.90323C11.1587 8.90323 10.1291 9.53349 10.6835 9.61227C11.7131 9.76984 11.6339 11.9758 11.3963 12.9211C11.0003 14.5756 9.41624 11.6606 8.70342 10.1638C8.62421 9.76984 8.3074 9.53349 7.91139 9.53349H5.85212C5.53531 9.53349 5.2977 9.61227 5.2977 9.84862C5.2977 10.2425 7.27777 14.1029 9.09943 16.0725C10.9211 17.9632 12.7428 17.8057 14.01 17.8057C14.1684 17.8057 14.3268 17.7269 14.406 17.6481C14.4852 17.5693 14.5644 17.4118 14.5644 17.2542C14.5644 15.9937 15.0396 15.3634 15.9109 16.23C16.8613 17.1754 17.0989 17.8057 18.287 17.8057H20.4254C20.9799 17.8057 21.1383 17.6481 21.1383 17.4118C21.2175 16.8603 20.267 15.8361 19.475 15.1271ZM13.8516 0.000789162C21.2175 0.158354 27.0785 6.06705 26.9993 13.2363C26.9201 20.4055 20.8214 26.0778 13.4556 25.9991C6.01052 25.9203 0.0703125 20.1691 0.0703125 12.9999C0.149515 5.75192 6.32733 -0.0779935 13.8516 0.000789162Z" fill="#CDCDCD"/>
</symbol></svg>

<svg xmlns="http://www.w3.org/2000/svg" xmlns:xlink="http://www.w3.org/1999/xlink"><symbol id="icon-envelope"><path d="M16.68 0H2.323C1.042 0 0 1.009 0 2.25v9.5C0 12.991 1.042 14 2.323 14h14.354C17.958 14 19 12.991 19 11.75V2.253C19.004 1.013 17.962 0 16.68 0zm1.262 11.75c0 .674-.566 1.222-1.262 1.222H2.323c-.695 0-1.262-.548-1.262-1.222V2.253c0-.673.567-1.221 1.262-1.221h14.354c.695 0 1.262.548 1.262 1.221v9.497h.003z" fill="#00B2FF"/><path d="M11.983 6.882l4.646-4.035a.505.505 0 00.04-.727.546.546 0 00-.751-.038L9.51 7.651 8.26 6.57c-.004-.004-.008-.008-.008-.012a.78.78 0 00-.087-.072L3.078 2.078a.542.542 0 00-.75.042.502.502 0 00.043.727l4.702 4.07L2.39 11.16a.504.504 0 00-.023.727.541.541 0 00.75.027l4.754-4.305L9.16 8.724a.54.54 0 00.708-.004l1.325-1.15 4.725 4.348c.102.095.236.14.366.14a.537.537 0 00.385-.16.504.504 0 00-.02-.726l-4.666-4.29z" fill="#00B2FF"/></symbol><symbol id="icon-fb"><path fill-rule="evenodd" clip-rule="evenodd" d="M27 13.5C27 6.045 20.956 0 13.5 0S0 6.045 0 13.5C0 20.956 6.044 27 13.5 27S27 20.956 27 13.5zM16.884 9.294h-1.74c-.469 0-.798.397-.798.891v.775h2.485l-.402 2.517h-2.083v6.747h-2.543v-6.747h-1.688V10.96h1.688V9.677h.004c.045-1.463.553-2.856 3.031-2.944v-.01h2.046v2.571z" fill="#CDCDCD"/></symbol><symbol id="icon-header-logo"><path d="M32.067 13.867c1.128 0 2.081.727 2.44 1.733h8.986a2.596 2.596 0 012.44-1.733c1.434 0 2.6 1.166 2.6 2.6 0 1.433-1.166 2.6-2.6 2.6a2.597 2.597 0 01-2.44-1.734h-8.987a2.597 2.597 0 01-2.44 1.733 2.603 2.603 0 01-2.6-2.6c0-1.433 1.167-2.6 2.6-2.6zm13.866 3.466a.868.868 0 000-1.733.867.867 0 000 1.733zm-13.866 0a.868.868 0 10-.002-1.735.868.868 0 00.002 1.735z" fill="#00B2FF"/><path d="M25.133 19.226v-5.36c0-.23.091-.45.254-.612l3.467-3.467a.864.864 0 01.613-.254h2.76a2.596 2.596 0 012.44-1.733c1.433 0 2.6 1.166 2.6 2.6 0 1.433-1.167 2.6-2.6 2.6a2.596 2.596 0 01-2.44-1.733h-2.402l-2.958 2.958v5a2.596 2.596 0 011.733 2.441c0 1.434-1.167 2.6-2.6 2.6a2.603 2.603 0 01-2.6-2.6c0-1.128.727-2.081 1.733-2.44zm9.534-7.96a.868.868 0 10-.002-1.735.868.868 0 00.002 1.736zM26 22.534a.867.867 0 10-.002-1.735.867.867 0 00.002 1.735zm-16.467-.001c.4 0 .775.098 1.114.26l1.486-1.485V13c0-.23.091-.45.254-.613l8.674-8.673A2.556 2.556 0 0120.8 2.6c0-1.433 1.166-2.6 2.6-2.6C24.834 0 26 1.167 26 2.6s-1.166 2.6-2.6 2.6c-.4 0-.775-.098-1.114-.261l-8.42 8.42v8.307c0 .23-.09.451-.253.613l-1.74 1.74c.162.34.26.714.26 1.114 0 1.433-1.166 2.6-2.6 2.6a2.603 2.603 0 01-2.6-2.6c0-1.433 1.167-2.6 2.6-2.6zM23.4 3.467a.868.868 0 000-1.734.868.868 0 000 1.734zM9.533 26a.868.868 0 10-.001-1.735A.868.868 0 009.533 26zm-7.8-13.707V8.667c0-.231.091-.451.254-.613l6.067-6.067a.864.864 0 01.613-.254h4.492A2.597 2.597 0 0115.6 0c1.433 0 2.6 1.167 2.6 2.6s-1.167 2.6-2.6 2.6a2.597 2.597 0 01-2.44-1.733H9.024L3.467 9.025v3.268a2.596 2.596 0 011.733 2.44c0 1.433-1.167 2.6-2.6 2.6a2.603 2.603 0 01-2.6-2.6c0-1.128.727-2.082 1.733-2.44zM15.6 3.467a.867.867 0 10-.002-1.735.867.867 0 00.002 1.735zM2.6 15.6a.867.867 0 10-.002-1.735A.867.867 0 002.6 15.6zm11.266 31.36V34.507a2.597 2.597 0 01-1.733-2.44c0-1.434 1.167-2.6 2.6-2.6 1.129 0 2.082.726 2.44 1.733h8.986a2.597 2.597 0 012.441-1.734c1.128 0 2.082.727 2.44 1.733h5.001l3.22-3.22A2.557 2.557 0 0139 26.867c0-1.433 1.166-2.6 2.6-2.6 1.433 0 2.6 1.167 2.6 2.6 0 1.434-1.167 2.6-2.6 2.6-.4 0-.775-.098-1.114-.26l-3.473 3.473a.864.864 0 01-.613.254h-5.36a2.597 2.597 0 01-2.44 1.733 2.597 2.597 0 01-2.44-1.733h-8.987a2.598 2.598 0 01-1.574 1.574V46.96a2.596 2.596 0 011.733 2.44c0 1.434-1.166 2.6-2.6 2.6a2.603 2.603 0 01-2.6-2.6c0-1.128.728-2.082 1.734-2.44zM41.6 27.732a.867.867 0 10-.002-1.735.867.867 0 00.002 1.735zm-13 5.2a.868.868 0 10-.002-1.735.868.868 0 00.002 1.735zM14.733 50.266a.868.868 0 000-1.733.868.868 0 000 1.733zm0-17.333a.868.868 0 000-1.733.868.868 0 000 1.733z" fill="#00B2FF"/><path d="M18.2 17.492v-2.759c0-.23.091-.45.254-.613L28.86 3.714A2.556 2.556 0 0128.6 2.6c0-1.433 1.166-2.6 2.6-2.6 1.128 0 2.082.727 2.44 1.733h3.627c.478 0 .866.388.866.867v2.241l3.22 3.22a2.556 2.556 0 011.114-.261c1.433 0 2.6 1.166 2.6 2.6 0 1.433-1.167 2.6-2.6 2.6a2.603 2.603 0 01-2.6-2.6c0-.4.098-.775.26-1.114l-3.473-3.473A.863.863 0 0136.4 5.2V3.467h-2.76A2.596 2.596 0 0131.2 5.2c-.4 0-.775-.098-1.114-.261L19.933 15.092v2.4a2.596 2.596 0 011.734 2.441c0 1.433-1.167 2.6-2.6 2.6a2.603 2.603 0 01-2.6-2.6c0-1.128.727-2.082 1.733-2.44zm24.267-6.226a.868.868 0 10-.002-1.735.868.868 0 00.002 1.736zM31.2 3.467a.868.868 0 000-1.733.868.868 0 000 1.734zM19.067 20.8a.868.868 0 10-.002-1.735.868.868 0 00.002 1.735z" fill="#00B2FF"/><path d="M20.8 24.266c1.128 0 2.082.727 2.44 1.734h10.201l4.946-4.946A.864.864 0 0139 20.8h9.175l2.092-2.092v-7.083L43.58 4.94c-.338.163-.713.26-1.113.26a2.603 2.603 0 01-2.6-2.599c0-1.433 1.166-2.6 2.6-2.6 1.433 0 2.6 1.167 2.6 2.6 0 .4-.098.775-.261 1.114l6.94 6.94a.863.863 0 01.254.613v7.8c0 .23-.091.45-.254.612l-2.6 2.6a.864.864 0 01-.613.254H39.36l-4.946 4.946a.864.864 0 01-.613.254H23.24a2.596 2.596 0 01-2.44 1.733 2.603 2.603 0 01-2.6-2.6c0-1.433 1.166-2.6 2.6-2.6zM42.467 1.733a.868.868 0 10.001 1.735.868.868 0 00-.001-1.735zm-21.667 26a.868.868 0 000-1.733.868.868 0 000 1.733zM2.6 20.8c.4 0 .775.098 1.114.26l3.22-3.219v-5A2.596 2.596 0 015.2 10.4c0-1.434 1.167-2.6 2.6-2.6s2.6 1.166 2.6 2.6a2.596 2.596 0 01-1.733 2.44v5.36c0 .23-.091.45-.254.613l-3.474 3.473c.163.339.261.713.261 1.114a2.597 2.597 0 01-1.733 2.44v.668l6.679 6.679a.863.863 0 01.254.613v1.026a2.596 2.596 0 011.733 2.44 2.596 2.596 0 01-1.733 2.44v2.054a2.596 2.596 0 011.733 2.44c0 1.434-1.166 2.6-2.6 2.6a2.603 2.603 0 01-2.6-2.6c0-1.128.727-2.082 1.734-2.44v-2.053a2.596 2.596 0 01-1.734-2.44c0-1.13.727-2.083 1.734-2.441v-.668l-6.68-6.679a.863.863 0 01-.254-.613V25.84A2.597 2.597 0 010 23.4c0-1.434 1.167-2.6 2.6-2.6zm5.2-9.534a.867.867 0 10-.002-1.734.867.867 0 00.002 1.735zm1.733 33.8a.868.868 0 000-1.733.867.867 0 000 1.733zm0-6.933a.868.868 0 000-1.733.867.867 0 000 1.733zM2.6 24.266a.867.867 0 10-.002-1.735.867.867 0 00.002 1.735z" fill="#00B2FF"/></symbol><symbol id="icon-ok"><path d="M13.851 10.957c1.016 0 1.806-.836 1.787-1.746.019-.91-.752-1.764-1.768-1.764-.978 0-1.787.78-1.787 1.746 0 .965.79 1.764 1.768 1.764z" fill="#CDCDCD"/><path d="M13.701 0C6.441 0 .535 5.831.535 13c0 7.187 5.906 13 13.166 13 7.279 0 13.166-5.831 13.166-13C26.885 5.83 20.98 0 13.7 0zm.188 4.921c2.37 0 4.326 1.932 4.307 4.29 0 2.377-1.975 4.29-4.382 4.253-2.37-.037-4.27-1.95-4.27-4.271 0-2.359 1.938-4.272 4.345-4.272zm4.834 10.029c0 .037-.019.056-.019.093a1.213 1.213 0 01-.564.873c-.207.13-.433.26-.659.371a8.55 8.55 0 01-1.786.65c-.075.019-.075.019-.02.074l1.035 1.022 1.317 1.3c.62.613.451 1.634-.339 2.006-.131.074-.282.092-.432.13h-.245c-.019 0-.037 0-.037-.02-.301-.036-.546-.185-.771-.39l-2.276-2.246c-.057-.056-.057-.056-.113 0l-2.295 2.265c-.131.13-.263.223-.432.298-.113.055-.245.074-.358.092h-.244c-.038 0-.057-.018-.094-.018-.508-.093-.847-.372-.997-.854-.15-.483-.038-.91.32-1.263l.94-.929 1.392-1.374c.056-.056.056-.056-.019-.074-.019 0-.056-.019-.075-.019a8.182 8.182 0 01-2.351-.984c-.433-.279-.64-.687-.583-1.189.094-.928 1.147-1.43 1.937-.928.15.092.282.167.451.241a5.413 5.413 0 002.746.557c.47-.018.94-.111 1.411-.26.451-.148.846-.353 1.26-.575.677-.39 1.561-.075 1.825.65.037.11.056.204.075.315v.186z" fill="#CDCDCD"/></symbol><symbol id="icon-phone-call"><path d="M14.233 11.15c-.369-.383-.814-.588-1.286-.588-.468 0-.917.2-1.3.585l-1.203 1.196c-.099-.053-.198-.102-.293-.152a4.832 4.832 0 01-.377-.201c-1.126-.714-2.15-1.645-3.13-2.85-.476-.6-.796-1.105-1.028-1.618.312-.285.601-.581.883-.866l.32-.323c.798-.798.798-1.831 0-2.629l-1.04-1.037c-.117-.118-.24-.24-.353-.36A17.952 17.952 0 004.71 1.6c-.369-.365-.81-.559-1.274-.559-.464 0-.913.194-1.294.559l-.007.007L.84 2.91a2.778 2.778 0 00-.825 1.767c-.092 1.11.236 2.142.487 2.819.616 1.66 1.537 3.198 2.91 4.847a17.9 17.9 0 005.962 4.662c.875.414 2.043.904 3.348.987.08.004.163.008.24.008.878 0 1.617-.315 2.195-.942.004-.008.011-.012.015-.02.198-.239.426-.455.666-.687.163-.156.33-.319.494-.49.377-.391.575-.847.575-1.314 0-.471-.202-.924-.586-1.303l-2.089-2.094zm1.362 4c-.004 0-.004.005 0 0-.148.16-.3.305-.464.464a9.977 9.977 0 00-.734.76c-.384.41-.837.604-1.43.604-.058 0-.119 0-.176-.004-1.13-.072-2.18-.513-2.967-.889a16.898 16.898 0 01-5.616-4.391C2.911 10.132 2.043 8.689 1.47 7.139c-.354-.946-.483-1.683-.426-2.379.038-.444.21-.813.525-1.128l1.297-1.295c.187-.175.385-.27.579-.27.24 0 .433.144.555.266l.011.011c.233.217.453.44.685.68.118.122.24.243.362.369L6.095 4.43c.404.403.404.775 0 1.178-.11.11-.217.22-.327.326-.32.327-.624.63-.955.927-.007.008-.015.012-.019.02-.327.326-.266.645-.198.862l.012.034c.27.653.65 1.269 1.229 2.002l.003.004c1.05 1.291 2.158 2.298 3.379 3.07.156.098.316.178.468.254.137.068.266.133.377.201.015.008.03.02.045.027.13.064.251.095.377.095.316 0 .513-.198.578-.262l1.301-1.3c.13-.129.335-.285.575-.285.236 0 .43.149.548.278l.007.007 2.097 2.094c.391.387.391.786.003 1.189zM9.728 4.282a4.827 4.827 0 012.626 1.36 4.84 4.84 0 011.362 2.621.51.51 0 00.506.426c.03 0 .057-.004.087-.008a.513.513 0 00.422-.593 5.856 5.856 0 00-1.647-3.172 5.871 5.871 0 00-3.177-1.645.516.516 0 00-.593.418.507.507 0 00.414.593zm8.264 3.658a9.635 9.635 0 00-2.713-5.223 9.659 9.659 0 00-5.23-2.71.512.512 0 10-.168 1.011 8.65 8.65 0 014.676 2.42 8.601 8.601 0 012.423 4.67.51.51 0 00.506.425c.03 0 .057-.004.088-.008a.503.503 0 00.418-.585z" fill="#00B2FF"/></symbol><symbol id="icon-vk"><path d="M19.475 15.127c-1.109-1.024-1.188-1.024-.238-2.206 1.188-1.497 2.773-3.388 1.347-3.388H17.97c-.475 0-.554.316-.713.71-.633 1.496-1.9 3.466-2.376 3.15-.475-.314-.237-1.496-.237-3.387a.61.61 0 00-.159-.63c-.158-.158-.396-.315-.633-.315-.396-.079-.792-.158-1.188-.158-1.505 0-2.535.63-1.98.71 1.03.157.95 2.363.712 3.308-.396 1.655-1.98-1.26-2.693-2.757-.079-.394-.396-.63-.792-.63H5.852c-.317 0-.554.078-.554.315 0 .393 1.98 4.254 3.801 6.224 1.822 1.89 3.644 1.733 4.911 1.733a.607.607 0 00.396-.158.6.6 0 00.158-.394c0-1.26.476-1.89 1.347-1.024.95.945 1.188 1.576 2.376 1.576h2.138c.555 0 .713-.158.713-.394.08-.552-.871-1.576-1.663-2.285zM13.852.001c7.366.157 13.226 6.066 13.147 13.235-.079 7.17-6.178 12.842-13.543 12.763C6.01 25.92.07 20.17.07 13 .15 5.753 6.327-.077 13.852.002z" fill="#CDCDCD"/></symbol></svg>
